mobile/24/svg/download-24.svg

<svg width="24" height="24" viewBox="0 0 24 24" fill="none" xmlns="http://www.w3.org/2000/svg">
<path d="M12.875 15.0122V3H11.125V15.0126L7.23695 11.1246L5.99951 12.362L11.3812 17.7437C11.5453 17.9078 11.7679 18 12 18C12.2321 18 12.4546 17.9078 12.6187 17.7437L17.9994 12.3619L16.7618 11.1246L12.875 15.0122Z" fill="black"/>
<path d="M5 17V19.5C5 19.9138 5.33625 20.25 5.75 20.25H18.25C18.6638 20.25 19 19.9138 19 19.5V17H20.75V19.5C20.75 20.8802 19.6302 22 18.25 22H5.75C4.36975 22 3.25 20.8802 3.25 19.5V17H5Z" fill="black"/>
</svg>

<svg width="24" height="24" fill="none" xmlns="http://www.w3.org/2000/svg"><path d="M12.875 15.012V3h-1.75v12.013l-3.888-3.888L6 12.362l5.381 5.382a.875.875 0 0 0 1.238 0l5.38-5.382-1.237-1.237-3.887 3.887z" fill="#000"/><path d="M5 17v2.5c0 .414.336.75.75.75h12.5a.75.75 0 0 0 .75-.75V17h1.75v2.5a2.5 2.5 0 0 1-2.5 2.5H5.75a2.5 2.5 0 0 1-2.5-2.5V17H5z" fill="#000"/></svg>
